Catalina-dark/actions/22/go-previous-context.svg

<svg xmlns="http://www.w3.org/2000/svg" viewBox="0 0 22 22">
  <defs id="defs3051">
    <style type="text/css" id="current-color-scheme">
      .ColorScheme-Text {
        color:#f2f2f2;
      }
      </style>
  </defs>
 <path 
       style="fill:currentColor;fill-opacity:1;stroke:none"
	 class="ColorScheme-Text"
        d="M 6 3 L 2 11 L 6 19 L 20 19 L 20 3 L 6 3 z M 11.435547 7 L 11.435547 7.5917969 C 10.724827 7.5917969 10.707031 7.8309556 10.707031 8.6972656 L 10.707031 9.7148438 C 10.707031 10.130314 10.583415 10.747556 9.984375 11.003906 C 10.583415 11.260256 10.707031 11.879462 10.707031 12.294922 L 10.707031 13.302734 C 10.707031 14.169044 10.724727 14.408203 11.435547 14.408203 L 11.435547 15 C 10.369447 15 9.9140725 14.647754 9.9140625 13.746094 L 9.9140625 12.523438 C 9.9140625 11.966527 9.8736619 11.322266 9.2949219 11.322266 L 9 11.322266 L 9 10.677734 L 9.2949219 10.677734 C 9.8736619 10.677734 9.9140725 10.033473 9.9140625 9.4765625 L 9.9140625 8.2539062 C 9.9140625 7.3522463 10.369447 7 11.435547 7 z M 14.572266 7 C 15.638356 7 16.085938 7.3522463 16.085938 8.2539062 L 16.085938 9.4765625 C 16.085938 10.033473 16.106443 10.677734 16.695312 10.677734 L 17 10.677734 L 17 11.322266 L 16.695312 11.322266 C 16.106443 11.322266 16.085938 11.966527 16.085938 12.523438 L 16.085938 13.746094 C 16.085938 14.647754 15.638356 15 14.572266 15 L 14.572266 14.408203 C 15.282966 14.408203 15.292969 14.169044 15.292969 13.302734 L 15.292969 12.294922 C 15.292969 11.879462 15.416585 11.260256 16.015625 11.003906 C 15.416585 10.747556 15.292969 10.130314 15.292969 9.7148438 L 15.292969 8.6972656 C 15.292969 7.8309556 15.282966 7.5917969 14.572266 7.5917969 L 14.572266 7 z "
     />
</svg>

<svg viewBox="0 0 22 22" xmlns="http://www.w3.org/2000/svg">
<defs>
<style id="current-color-scheme" type="text/css">.ColorScheme-Text {
        color:#dedede;
      }</style>
</defs>
<path class="ColorScheme-Text" d="m6 3-4 8 4 8h14v-16h-14zm5.4355 4v0.5918c-0.71072 0-0.72852 0.23916-0.72852 1.1055v1.0176c0 0.41547-0.12362 1.0327-0.72266 1.2891 0.59904 0.25635 0.72266 0.87556 0.72266 1.291v1.0078c0 0.86631 0.017696 1.1055 0.72852 1.1055v0.5918c-1.0661 0-1.5215-0.35225-1.5215-1.2539v-1.2227c0-0.55691-0.040401-1.2012-0.61914-1.2012h-0.29492v-0.64453h0.29492c0.57874 0 0.61915-0.64426 0.61914-1.2012v-1.2227c0-0.90166 0.45538-1.2539 1.5215-1.2539zm3.1367 0c1.0661 0 1.5137 0.35225 1.5137 1.2539v1.2227c0 0.55691 0.020505 1.2012 0.60937 1.2012h0.30469v0.64453h-0.30469c-0.58887 0-0.60937 0.64426-0.60937 1.2012v1.2227c0 0.90166-0.44758 1.2539-1.5137 1.2539v-0.5918c0.7107 0 0.7207-0.23916 0.7207-1.1055v-1.0078c0-0.41546 0.12362-1.0347 0.72266-1.291-0.59904-0.25635-0.72266-0.87359-0.72266-1.2891v-1.0176c0-0.86631-0.010003-1.1055-0.7207-1.1055v-0.5918z" fill="currentColor"/>
</svg>
